app/images/dist/footer-photo-3.svg

<svg width="41" height="29" viewBox="0 0 41 29" fill="none" xmlns="http://www.w3.org/2000/svg">
<path d="M40.186 4.40602C39.726 2.69002 38.376 1.33601 36.662 0.874015C33.53 0.0140148 21 1.5193e-05 21 1.5193e-05C21 1.5193e-05 8.472 -0.0139852 5.338 0.808015C3.658 1.26601 2.27 2.65002 1.806 4.36402C0.980003 7.49602 0.972003 13.992 0.972003 13.992C0.972003 13.992 0.964003 20.52 1.784 23.62C2.244 25.334 3.594 26.688 5.31 27.15C8.474 28.01 20.97 28.024 20.97 28.024C20.97 28.024 33.5 28.038 36.632 27.218C38.344 26.758 39.7 25.406 40.166 23.692C40.994 20.562 41 14.068 41 14.068C41 14.068 41.04 7.53802 40.186 4.40602ZM16.992 20.01L17.002 8.01002L27.416 14.02L16.992 20.01Z" fill="white"/>
</svg>

<svg width="41" height="29" fill="none" xmlns="http://www.w3.org/2000/svg"><path d="M40.186 4.406A5.012 5.012 0 0036.662.874C33.53.014 21 0 21 0S8.472-.014 5.338.808c-1.68.458-3.068 1.842-3.532 3.556C.98 7.496.972 13.992.972 13.992s-.008 6.528.812 9.628a5.012 5.012 0 003.526 3.53c3.164.86 15.66.874 15.66.874s12.53.014 15.662-.806a5.03 5.03 0 003.534-3.526c.828-3.13.834-9.624.834-9.624s.04-6.53-.814-9.662zM16.992 20.01l.01-12 10.414 6.01-10.424 5.99z" fill="#fff"/></svg>
